X:1
T:Title
%%score ( 1 2 ) { 3 | 4 }
L:1/8
Q:1/4=90
M:4/4
K:Ab
V:1 treble nm="Grand Piano, Soprano"
V:2 treble 
V:3 bass nm="Choir Pad, The Song of Christmas"
V:4 bass 
V:1
 EcBA E3 E | FGAB c c3 | F2 FF dc B2- | BB=AB cBEc- | c4 cc_c=c | G4 ABcd | c c3 F2 GA | %7
w: By~G.~Froelich * * * * *|||||||
 GF B2- BB=AB | c=dfe- e3- e/ z/ | z8 | z4 z d3- | d2 z2 z4 | z4 z2 z c- | c4 z4 | %14
w: |||||||
 [Ac]3 [Ac]- [Ac][Ac][_Ge][Gc] | z d3- d3/2 z/ z2 | [Fc][FB] [EA]2- [EA]EA[Ac] | z2 z A- A4- | %18
w: ||||
 A4 z4 |] %19
w: |
V:2
 x8 | x8 | x8 | x8 | x8 | x8 | x8 | x8 | x8 | EEAc [Ae]3 [Ae]- | [Ae][Ac][Ac][GB] [Ac]GGG | %11
 G2 EE GB [Gd]2- | [Gd] [Gd]2 [Gd] [Ge][Gd][GB]A | AA A2 EEAB | x8 | [_GA]FFF F2 FF | x8 | %17
 [Ad][Gc][GB]E EE E2- | E4 z4 |] %19
V:3
 z A,,E,A, CCCC- | C2 A,,E, A,D,A,A, | A,2 z B,, F,B,DD | D .D3 E,G,DA,, | CC C2 z A,,E,A, | %5
 CCCC- C/ z/ z[K:bass] C,G, | B,CCC C2 z F,, | C,F,G,G, G, .G,3 | A,A,A,G, B,B, B,2 | %9
 E,E,A,[K:treble]C C3 C- | CEEE EEEE | E2[K:bass] E,E, G,B, B,2- | B, B,2 B, B,[K:treble]EEE | %13
 EE E2[K:bass] E,E,A,B, | E3[K:treble] E- EECE | CD[K:bass]A,A, A,2 A,A, | %16
 A,[K:treble]D C2- C C2 E | FEDC CC C2- | C4 z4 |] %19
V:4
 z4 [E,A,][E,A,][E,A,][E,A,]- | [E,A,]2 z2 z2 F,F, | [D,F,]2 z2 z2 [E,G,][E,G,] | %3
 [E,G,] .[E,G,]3 z4 | [E,A,][E,A,] [E,A,]2 z4 | [=E,G,][E,G,][E,G,][E,G,]- [E,G,]/ z/ z z2 | %6
 z [F,A,][E,A,][E,A,] [E,A,]2 z2 | z2 [B,,E,][B,,E,] [B,,E,] .[B,,E,]3 | %8
 [B,,F,][B,,F,][B,,F,]E, [E,G,][E,G,] [E,G,]2 | z4 A,3 A,- | A,A,A,C, A,B,B,G, | E,2 z2 z2 E,2- | %12
 E, E,2 E, E,E,E,A, | E,C, A,,2 z4 | A,3 A,- A,A,A,A, | A,D,D,D, D,2 D,D, | D,D, E,2- E, E,2 E, | %17
 E,E,E,A, E,C, A,,2- | A,,4 z4 |] %19

